svg/white/qtum.svg

<svg xmlns="http://www.w3.org/2000/svg" width="32" height="32" viewBox="0 0 32 32">
  <path fill="#FFF" fill-rule="evenodd" d="M25.313057,23.6361289 C25.2179598,23.8080621 25.1637168,24.0064991 25.1637168,24.2178218 C25.1637168,24.8740017 25.6867116,25.4059406 26.3318584,25.4059406 C26.9770052,25.4059406 27.5,24.8740017 27.5,24.2178218 C27.5,23.5616419 26.9770052,23.029703 26.3318584,23.029703 C26.0350152,23.029703 25.7640326,23.1423186 25.5579568,23.327836 L23.6405023,21.6213705 L25.1377817,16.7916482 C25.1463921,16.7919348 25.1550379,16.7920792 25.1637168,16.7920792 C25.5938147,16.7920792 25.9424779,16.4374533 25.9424779,16 C25.9424779,15.5625467 25.5938147,15.2079208 25.1637168,15.2079208 C25.1462629,15.2079208 25.1289432,15.2085048 25.1117753,15.2096547 L23.8360823,11.0205522 C24.0493068,10.8792441 24.1902655,10.6345827 24.1902655,10.3564356 C24.1902655,9.91898238 23.8416023,9.56435644 23.4115044,9.56435644 C23.2039762,9.56435644 23.0154076,9.64692032 22.8758187,9.7815146 L19.3254207,7.17138777 C19.3859484,7.0587417 19.420354,6.9294971 19.420354,6.79207921 C19.420354,6.35462594 19.0716908,6 18.6415929,6 C18.2614033,6 17.9448457,6.2770999 17.8764987,6.64356436 L13.5659792,6.64356436 C13.4976322,6.2770999 13.1810745,6 12.800885,6 C12.3707871,6 12.0221239,6.35462594 12.0221239,6.79207921 C12.0221239,6.93728652 12.0605406,7.07336768 12.1276003,7.19038199 L8.55488372,9.77039148 C8.41655275,9.64238576 8.23272225,9.56435644 8.03097345,9.56435644 C7.60087559,9.56435644 7.25221239,9.91898238 7.25221239,10.3564356 C7.25221239,10.6577166 7.41759355,10.91971 7.66105818,11.0536255 L6.38039233,15.2146048 C6.34712906,15.2101953 6.31320622,15.2079208 6.27876106,15.2079208 C5.8486632,15.2079208 5.5,15.5625467 5.5,16 C5.5,16.4374533 5.8486632,16.7920792 6.27876106,16.7920792 C6.30432615,16.7920792 6.32960352,16.7908263 6.35453705,16.7883775 L7.65754452,20.9483191 C7.41600374,21.0828155 7.25221239,21.343735 7.25221239,21.6435644 C7.25221239,22.0810176 7.60087559,22.4356436 8.03097345,22.4356436 C8.22888085,22.4356436 8.40954582,22.3605574 8.54693276,22.2368658 L12.0931207,24.8770389 C12.0475429,24.9777275 12.0221239,25.0898049 12.0221239,25.2079208 C12.0221239,25.6453741 12.3707871,26 12.800885,26 C13.1810745,26 13.4976322,25.7229001 13.5659792,25.3564356 L17.8764987,25.3564356 C17.9448457,25.7229001 18.2614033,26 18.6415929,26 C19.0716908,26 19.420354,25.6453741 19.420354,25.2079208 C19.420354,25.0888526 19.3945234,24.9759206 19.3482508,24.8746057 L23.3403333,21.8804758 L25.313057,23.6361289 Z M18.7077625,24.4186606 C18.6859494,24.4167939 18.6638805,24.4158416 18.6415929,24.4158416 C18.5379156,24.4158416 18.4389702,24.4364481 18.3484999,24.4738539 L16.3005466,21.5788691 C16.3966954,21.470091 16.463655,21.3340864 16.4888846,21.1836104 L19.9394713,20.6822393 C19.9847102,20.8364801 20.0749054,20.9710042 20.1945948,21.0700855 L18.7077625,24.4186606 Z M19.1007956,24.5681282 C19.092774,24.562162 19.084636,24.5563481 19.0763857,24.5506907 L20.5485068,21.2352476 C20.5930877,21.2433152 20.6389809,21.2475248 20.6858407,21.2475248 C20.9366794,21.2475248 21.1598191,21.1269032 21.302249,20.9395775 L22.9696691,21.6664072 L19.1007956,24.5681282 Z M18.0358816,24.710036 C17.9772529,24.7837303 17.9313612,24.8683383 17.9016121,24.960396 L13.5408658,24.960396 C13.5111167,24.8683383 13.4652249,24.7837303 13.4065963,24.710036 L15.4664549,21.7982219 C15.5462872,21.8263211 15.6320106,21.8415842 15.7212389,21.8415842 C15.8104673,21.8415842 15.8961907,21.8263211 15.976023,21.7982219 L18.0358816,24.710036 Z M24.7641172,16.6799944 L23.5377432,20.6358666 L23.2719964,16.7504269 C23.579529,16.6445301 23.800885,16.3485573 23.800885,16 C23.800885,15.6492665 23.5767564,15.3517763 23.2662264,15.2476119 L23.5358966,11.3733782 L24.7420085,15.3339908 C24.52718,15.4750005 24.3849558,15.7206071 24.3849558,16 C24.3849558,16.2888699 24.5369921,16.5416225 24.7641172,16.6799944 Z M22.5104967,15.4028271 C22.3468012,15.5480323 22.2433628,15.7617299 22.2433628,16 C22.2433628,16.2274159 22.3375918,16.4324471 22.4885049,16.5769066 L20.869739,19.6855792 C20.8107757,19.6710601 20.7491916,19.6633663 20.6858407,19.6633663 C20.6428999,19.6633663 20.6007708,19.6669012 20.5597195,19.6737005 L19.1252807,16.6208179 C19.3050577,16.4757244 19.420354,16.2515569 19.420354,16 C19.420354,15.7527026 19.3089292,15.531875 19.1343573,15.3866204 L20.5259568,12.3199243 C20.5775609,12.3308765 20.6310398,12.3366337 20.6858407,12.3366337 C20.769468,12.3366337 20.8500166,12.3232266 20.9255221,12.2984106 L22.5104967,15.4028271 Z M22.8836701,16.7795985 L23.1951585,21.3338199 L21.455701,20.5755891 C21.4615623,20.5364108 21.4646018,20.4962892 21.4646018,20.4554455 C21.4646018,20.2247034 21.3675962,20.0170056 21.2128015,19.8722392 L22.8297075,16.7677168 C22.8474595,16.7723056 22.8654549,16.7762741 22.8836701,16.7795985 Z M22.8776909,15.2215174 C22.8713097,15.2227345 22.864956,15.2240309 22.8586307,15.2254053 L21.2551395,12.0850291 C21.3850782,11.9434997 21.4646018,11.7534727 21.4646018,11.5445545 C21.4646018,11.4916638 21.4595049,11.4399839 21.4497836,11.3899952 L22.7879367,10.8310029 C22.881814,10.9584054 23.0125512,11.0560911 23.1640565,11.1076929 L22.8776909,15.2215174 Z M18.7696375,16.7814239 L20.2033934,19.8336286 C20.0649873,19.9448694 19.964605,20.1028943 19.9253201,20.2842351 L16.4566393,20.7882353 C16.424304,20.694073 16.3749806,20.6080181 16.3124049,20.5338702 L18.4349885,16.7639031 C18.5007847,16.7822704 18.5700626,16.7920792 18.6415929,16.7920792 C18.6852046,16.7920792 18.727979,16.788433 18.7696375,16.7814239 Z M18.7808636,15.220551 C18.7356755,15.2122532 18.6891316,15.2079208 18.6415929,15.2079208 C18.5627838,15.2079208 18.4867088,15.2198274 18.415012,15.2419686 L16.2761237,11.4072472 C16.345579,11.3355162 16.4016908,11.2503815 16.4403671,11.1560048 L19.9154261,11.6609318 C19.9432459,11.8531023 20.038918,12.0228183 20.1768928,12.1440931 L18.7808636,15.220551 Z M18.0978667,16.5670569 L15.9918421,20.3065526 C15.9075557,20.2747823 15.8163902,20.2574257 15.7212389,20.2574257 C15.6521795,20.2574257 15.5852196,20.2665686 15.5214655,20.2837292 L13.3526365,16.5589796 C13.4929272,16.4157296 13.579646,16.2181651 13.579646,16 C13.579646,15.7899754 13.499278,15.5990427 13.3681152,15.457281 L15.5753923,11.6296968 C15.6226366,11.6388008 15.6713908,11.6435644 15.7212389,11.6435644 C15.7979993,11.6435644 15.8721658,11.6322687 15.9422193,11.6112226 L18.0825624,15.4485521 C17.9465572,15.5911563 17.8628319,15.7856334 17.8628319,16 C17.8628319,16.2222954 17.9528653,16.4232027 18.0978667,16.5670569 Z M6.72059187,16.6523469 C6.92413413,16.5094619 7.05752212,16.2705746 7.05752212,16 C7.05752212,15.7392746 6.93366831,15.5079716 6.7425374,15.3636351 L7.96589538,11.3888534 L8.2688088,15.222909 C7.91125088,15.294636 7.64159292,15.6152884 7.64159292,16 C7.64159292,16.3800324 7.90473115,16.6975544 8.25580136,16.7743637 L7.96262991,20.6176394 L6.72059187,16.6523469 Z M10.6092525,19.6775319 L8.95889417,16.5721548 C9.1069318,16.4279687 9.19911504,16.2249337 9.19911504,16 C9.19911504,15.7688242 9.10174447,15.5607793 8.94644137,15.4159781 L10.6245549,12.3252879 C10.6674857,12.3327478 10.7116152,12.3366337 10.7566372,12.3366337 C10.8114975,12.3366337 10.8650328,12.330864 10.9166887,12.3198887 L12.3088057,15.386051 C12.1338402,15.5312975 12.0221239,15.7523793 12.0221239,16 C12.0221239,16.2562942 12.1418035,16.4841576 12.327422,16.6289305 L10.956517,19.6896984 C10.892731,19.6725194 10.825735,19.6633663 10.7566372,19.6633663 C10.7062479,19.6633663 10.6569765,19.6682339 10.6092525,19.6775319 Z M10.9328,21.2271739 L12.3717145,24.5468713 C12.3608008,24.5542159 12.3500796,24.5618327 12.3395602,24.5697121 L8.76510668,21.908495 C8.79400503,21.8256577 8.80973451,21.7364794 8.80973451,21.6435644 C8.80973451,21.6096507 8.80763899,21.5762348 8.80357246,21.5434434 L10.1525845,20.9554081 C10.2953824,21.1336713 10.5129374,21.2475248 10.7566372,21.2475248 C10.817223,21.2475248 10.8761929,21.2404879 10.9328,21.2271739 Z M9.98999495,20.5954027 L8.65926102,21.1754706 C8.5759035,21.059922 8.46247571,20.9682154 8.33070506,20.9122788 L8.64351298,16.8115825 L10.2570988,19.8477672 C10.0864236,19.9930646 9.97787611,20.211362 9.97787611,20.4554455 C9.97787611,20.503203 9.98203162,20.5499733 9.98999495,20.5954027 Z M11.51963,20.2960795 C11.4875338,20.1362669 11.4081206,19.9939731 11.2969246,19.8849978 L12.6860593,16.7835292 C12.7235316,16.7891616 12.7618733,16.7920792 12.800885,16.7920792 C12.876129,16.7920792 12.9488807,16.7812254 13.0177091,16.7609732 L15.182038,20.4779944 C15.0940862,20.5638585 15.0259132,20.6705221 14.9851632,20.7902103 L11.51963,20.2960795 Z M11.4997205,20.693153 L14.9539415,21.1856708 C14.979435,21.3353278 15.0462215,21.4705877 15.1419313,21.5788691 L13.0939779,24.4738539 C13.0035077,24.4364481 12.9045623,24.4158416 12.800885,24.4158416 C12.780869,24.4158416 12.7610294,24.4166096 12.7413931,24.4181183 L11.278201,21.0436522 C11.3800966,20.9501251 11.4575704,20.8295959 11.4997205,20.693153 Z M9.99656708,11.3712777 C9.9843308,11.4270468 9.97787611,11.485034 9.97787611,11.5445545 C9.97787611,11.7943229 10.0915388,12.0170899 10.2691247,12.1622656 L8.65273358,15.1379675 L8.33267353,11.0868823 C8.46706853,11.0293885 8.58226865,10.9346441 8.66577976,10.815357 L9.99656708,11.3712777 Z M10.9469202,10.7762895 C10.8860226,10.7607354 10.8222783,10.7524752 10.7566372,10.7524752 C10.5254176,10.7524752 10.3177336,10.8549661 10.1751048,11.017718 L8.80488539,10.445325 C8.80808927,10.4161448 8.80973451,10.3864856 8.80973451,10.3564356 C8.80973451,10.2673439 8.79527288,10.1816877 8.76860696,10.1017628 L12.3219587,7.53573756 L10.9469202,10.7762895 Z M11.5286571,11.6492378 L15.0013287,11.1540892 C15.0498703,11.2734236 15.1262589,11.3780658 15.2222547,11.4596348 L13.0396643,15.245848 C12.9644195,15.2212213 12.8841793,15.2079208 12.800885,15.2079208 C12.7533462,15.2079208 12.7068024,15.2122532 12.6616143,15.220551 L11.2655851,12.1440931 C11.406352,12.0203641 11.5030868,11.8462135 11.5286571,11.6492378 Z M11.2899449,10.9673501 L12.7270015,7.58064019 C12.7513213,7.58296805 12.7759665,7.58415842 12.800885,7.58415842 C12.9133579,7.58415842 13.020262,7.55990726 13.1168183,7.51626555 L15.1072269,10.3642178 C15.0210189,10.4764377 14.963901,10.6128974 14.9474075,10.7618653 L11.4820937,11.2559648 C11.4395977,11.1455368 11.3734324,11.0471801 11.2899449,10.9673501 Z M20.6123224,10.7559586 L19.1409252,7.5244161 L22.6686788,10.1178956 C22.645333,10.1931749 22.6327434,10.2733099 22.6327434,10.3564356 C22.6327434,10.3931511 22.6351994,10.4292832 22.6399536,10.464671 L21.280178,11.0327013 C21.1373285,10.8612814 20.9240775,10.7524752 20.6858407,10.7524752 C20.6610469,10.7524752 20.6365237,10.7536537 20.6123224,10.7559586 Z M19.9563009,11.2668105 L16.4952958,10.7639256 C16.4791027,10.6141556 16.4218563,10.4769549 16.335251,10.3642178 L18.3256596,7.51626555 C18.4222159,7.55990726 18.5291199,7.58415842 18.6415929,7.58415842 C18.6736874,7.58415842 18.7053284,7.58218373 18.736405,7.57834731 L20.2450929,10.8914487 C20.1145452,10.9827622 20.0127402,11.1135185 19.9563009,11.2668105 Z M18.0202671,7.26967383 L16.0264244,10.1225397 C15.9327064,10.0818976 15.8295551,10.0594059 15.7212389,10.0594059 C15.6129228,10.0594059 15.5097715,10.0818976 15.4160535,10.1225397 L13.4222108,7.26967383 C13.4734056,7.20088216 13.5138112,7.12332371 13.5408658,7.03960396 L17.9016121,7.03960396 C17.9286667,7.12332371 17.9690722,7.20088216 18.0202671,7.26967383 Z M16,32 C7.163444,32 0,24.836556 0,16 C0,7.163444 7.163444,0 16,0 C24.836556,0 32,7.163444 32,16 C32,24.836556 24.836556,32 16,32 Z"/>
</svg>

<svg xmlns="http://www.w3.org/2000/svg" width="32" height="32"><path fill="#FFF" fill-rule="evenodd" d="M25.313 23.636c-.095.172-.15.37-.15.582 0 .656.524 1.188 1.169 1.188s1.168-.532 1.168-1.188c0-.656-.523-1.188-1.168-1.188-.297 0-.568.112-.774.298l-1.917-1.707 1.497-4.83a.786.786 0 0 0 .805-.792.786.786 0 0 0-.831-.79l-1.276-4.188a.795.795 0 0 0 .354-.665.786.786 0 0 0-.778-.792.77.77 0 0 0-.536.218l-3.55-2.61a.8.8 0 0 0 .094-.38.786.786 0 0 0-.778-.792.783.783 0 0 0-.766.644h-4.31A.783.783 0 0 0 12.801 6a.786.786 0 0 0-.779.792c0 .145.039.281.106.398L8.555 9.77a.769.769 0 0 0-.524-.206.786.786 0 0 0-.779.792c0 .302.166.564.41.698l-1.282 4.16A.786.786 0 0 0 5.5 16a.786.786 0 0 0 .855.79l1.303 4.16a.794.794 0 0 0-.406.695c0 .437.349.792.779.792a.768.768 0 0 0 .516-.2l3.546 2.641a.8.8 0 0 0-.07.33c0 .438.348.793.778.793.38 0 .697-.277.765-.644h4.31a.783.783 0 0 0 .766.644c.43 0 .778-.355.778-.792a.8.8 0 0 0-.072-.333l3.992-2.995 1.973 1.756zm-6.605.783a.776.776 0 0 0-.36.055l-2.047-2.895a.795.795 0 0 0 .188-.395l3.45-.502a.794.794 0 0 0 .256.388l-1.487 3.349zm.393.15a.78.78 0 0 0-.025-.018l1.473-3.316a.77.77 0 0 0 .753-.295l1.668.726-3.87 2.902zm-1.065.141a.795.795 0 0 0-.134.25H13.54a.795.795 0 0 0-.134-.25l2.06-2.912a.766.766 0 0 0 .509 0l2.06 2.912zm6.728-8.03l-1.226 3.956-.266-3.886a.791.791 0 0 0 .529-.75.791.791 0 0 0-.535-.752l.27-3.875 1.206 3.961a.795.795 0 0 0-.357.666c0 .289.152.542.38.68zm-2.254-1.277a.796.796 0 0 0-.267.597c0 .227.095.432.246.577l-1.62 3.109a.768.768 0 0 0-.31-.012l-1.434-3.053A.796.796 0 0 0 19.42 16a.796.796 0 0 0-.286-.613l1.392-3.067a.77.77 0 0 0 .4-.022l1.584 3.105zm.374 1.377l.311 4.554-1.74-.758a.796.796 0 0 0-.243-.703l1.618-3.105a.763.763 0 0 0 .054.012zm-.006-1.558a.763.763 0 0 0-.02.003l-1.603-3.14a.797.797 0 0 0 .195-.695l1.338-.559a.781.781 0 0 0 .376.277l-.286 4.114zm-4.108 1.56l1.433 3.052a.794.794 0 0 0-.278.45l-3.468.504a.795.795 0 0 0-.145-.254l2.123-3.77a.767.767 0 0 0 .335.017zm.01-1.561a.77.77 0 0 0-.365.021l-2.139-3.835a.794.794 0 0 0 .164-.251l3.475.505a.795.795 0 0 0 .262.483l-1.396 3.077zm-.682 1.346l-2.106 3.74a.766.766 0 0 0-.47-.023l-2.17-3.725A.796.796 0 0 0 13.58 16c0-.21-.08-.401-.212-.543l2.207-3.827a.77.77 0 0 0 .367-.019l2.14 3.838a.797.797 0 0 0-.22.551c0 .222.09.423.236.567zm-11.377.085A.795.795 0 0 0 7.058 16a.795.795 0 0 0-.315-.636l1.223-3.975.303 3.834a.789.789 0 0 0-.627.777c0 .38.263.698.614.774l-.293 3.844-1.242-3.966zm3.888 3.026l-1.65-3.106a.796.796 0 0 0 .24-.572.796.796 0 0 0-.253-.584l1.679-3.09a.771.771 0 0 0 .292-.006l1.392 3.066a.796.796 0 0 0-.287.614c0 .256.12.484.305.629l-1.37 3.06a.768.768 0 0 0-.348-.011zm.324 1.55l1.439 3.319a.78.78 0 0 0-.032.023l-3.575-2.662a.803.803 0 0 0 .039-.365l1.349-.588a.772.772 0 0 0 .78.272zm-.943-.633l-1.33.58a.784.784 0 0 0-.33-.263l.314-4.1 1.613 3.036a.796.796 0 0 0-.267.747zm1.53-.299a.795.795 0 0 0-.223-.411l1.39-3.101a.772.772 0 0 0 .33-.023l2.165 3.717a.794.794 0 0 0-.197.312l-3.465-.494zm-.02.397l3.454.493c.025.15.092.285.188.393l-2.048 2.895a.765.765 0 0 0-.353-.056l-1.463-3.374a.794.794 0 0 0 .222-.35zm-1.503-9.322a.808.808 0 0 0 .272.791l-1.616 2.976-.32-4.051a.784.784 0 0 0 .333-.272l1.33.556zm.95-.595a.768.768 0 0 0-.772.242l-1.37-.573a.814.814 0 0 0-.036-.343l3.553-2.566-1.375 3.24zm.582.873L15 11.154c.049.12.125.224.221.306l-2.182 3.786a.766.766 0 0 0-.378-.025l-1.396-3.077a.795.795 0 0 0 .263-.495zm-.24-.682l1.438-3.386a.775.775 0 0 0 .39-.065l1.99 2.848a.796.796 0 0 0-.16.398l-3.465.494a.794.794 0 0 0-.192-.289zm9.323-.211l-1.471-3.232 3.528 2.594a.804.804 0 0 0-.029.347l-1.36.568a.772.772 0 0 0-.668-.277zm-.656.51l-3.46-.502a.796.796 0 0 0-.16-.4l1.99-2.848a.765.765 0 0 0 .41.062l1.51 3.313a.793.793 0 0 0-.29.376zM18.02 7.27l-1.994 2.853a.765.765 0 0 0-.61 0L13.422 7.27a.795.795 0 0 0 .119-.23h4.36a.795.795 0 0 0 .12.23zM16 32C7.163 32 0 24.837 0 16S7.163 0 16 0s16 7.163 16 16-7.163 16-16 16z"/></svg>
